X: 2
T: The Bird In The Bush
R: reel
M: 4/4
L: 1/8
K: Gmaj
|: d2eB dB~B2|dBAB G2AG|EA~A2 BGGA|BG (3Bde g2ge|d2eB dB~B2|dBAB ~G3E|DEGA B2Bc|dBAc BG~G2:||:(3Bcd ef g2fg|afdf gfed|Bdef ~g3b|agab ~g3a|bg~g2 agef|~g3e dB~B2|DEGA B2Bc|dBAc BG~G2:|


Tune 629	Setting 28677

